gtk-icons/Papirus-GTK/16x16/actions/color-gradient.svg

<?xml version="1.0" encoding="UTF-8" standalone="no"?>
<!-- Created with Inkscape (http://www.inkscape.org/) -->

<svg
   xmlns:osb="http://www.openswatchbook.org/uri/2009/osb"
   xmlns:dc="http://purl.org/dc/elements/1.1/"
   xmlns:cc="http://creativecommons.org/ns#"
   xmlns:rdf="http://www.w3.org/1999/02/22-rdf-syntax-ns#"
   xmlns:svg="http://www.w3.org/2000/svg"
   xmlns="http://www.w3.org/2000/svg"
   xmlns:xlink="http://www.w3.org/1999/xlink"
   xmlns:sodipodi="http://sodipodi.sourceforge.net/DTD/sodipodi-0.dtd"
   xmlns:inkscape="http://www.inkscape.org/namespaces/inkscape"
   sodipodi:docname="color-gradient.svg"
   inkscape:export-filename="/home/sam/source-symbolic.png"
   inkscape:export-xdpi="270"
   inkscape:export-ydpi="270"
   height="16"
   id="svg7384"
   style="enable-background:new"
   version="1.1"
   inkscape:version="0.91 r"
   width="16">
  <sodipodi:namedview
     inkscape:bbox-nodes="true"
     inkscape:bbox-paths="false"
     bordercolor="#666666"
     borderlayer="false"
     borderopacity="1"
     inkscape:current-layer="layer12"
     inkscape:cx="-1.6355"
     inkscape:cy="7.5273872"
     gridtolerance="10"
     inkscape:guide-bbox="true"
     guidetolerance="10"
     id="namedview88"
     inkscape:object-nodes="true"
     inkscape:object-paths="true"
     objecttolerance="10"
     pagecolor="#f7f7f7"
     inkscape:pageopacity="0"
     inkscape:pageshadow="2"
     showborder="true"
     showgrid="false"
     showguides="true"
     inkscape:showpageshadow="false"
     inkscape:snap-bbox="true"
     inkscape:snap-bbox-edge-midpoints="false"
     inkscape:snap-bbox-midpoints="true"
     inkscape:snap-center="false"
     inkscape:snap-global="true"
     inkscape:snap-grids="true"
     inkscape:snap-intersection-paths="true"
     inkscape:snap-midpoints="true"
     inkscape:snap-nodes="true"
     inkscape:snap-object-midpoints="true"
     inkscape:snap-others="true"
     inkscape:snap-page="false"
     inkscape:snap-smooth-nodes="true"
     inkscape:snap-to-guides="true"
     inkscape:window-height="841"
     inkscape:window-maximized="1"
     inkscape:window-width="1600"
     inkscape:window-x="-4"
     inkscape:window-y="33"
     inkscape:zoom="22.84">
    <inkscape:grid
       color="#000000"
       dotted="false"
       empcolor="#0800ff"
       empopacity="0.4627451"
       empspacing="4"
       enabled="true"
       id="grid4866"
       opacity="0.16470588"
       originx="-144.00023"
       originy="-295.99636"
       snapvisiblegridlinesonly="true"
       spacingx="0.25px"
       spacingy="0.25px"
       type="xygrid"
       visible="true" />
  </sodipodi:namedview>
  <metadata
     id="metadata90">
    <rdf:RDF>
      <cc:Work
         rdf:about="">
        <dc:format>image/svg+xml</dc:format>
        <dc:type
           rdf:resource="http://purl.org/dc/dcmitype/StillImage" />
        <dc:title>Paper Symbolic Icon Theme</dc:title>
      </cc:Work>
    </rdf:RDF>
  </metadata>
  <title
     id="title8473">Paper Symbolic Icon Theme</title>
  <defs
     id="defs7386">
    <linearGradient
       inkscape:collect="always"
       id="linearGradient4171">
      <stop
         style="stop-color:#000000;stop-opacity:1;"
         offset="0"
         id="stop4173" />
      <stop
         style="stop-color:#000000;stop-opacity:0;"
         offset="1"
         id="stop4175" />
    </linearGradient>
    <linearGradient
       id="linearGradient5606"
       osb:paint="solid">
      <stop
         id="stop5608"
         offset="0"
         style="stop-color:#000000;stop-opacity:1;" />
    </linearGradient>
    <linearGradient
       inkscape:collect="always"
       xlink:href="#linearGradient4171"
       id="linearGradient4177"
       x1="393.00043"
       y1="-63.996353"
       x2="393.00043"
       y2="-77.996353"
       gradientUnits="userSpaceOnUse" />
  </defs>
  <g
     inkscape:groupmode="layer"
     id="layer12"
     inkscape:label="actions"
     style="display:inline"
     transform="translate(-385.00043,78.996356)">
    <path
       style="opacity:0.5;stroke:none;fill-opacity:1;fill:url(#linearGradient4177)"
       d="m 386.00043,-77.996353 14,0 0,14 -14,0 z"
       id="rect4168" />
    <path
       style="opacity:0.5;stroke:none"
       d="M 2 2 L 2 6 L 5.2929688 6 L 10 10.705078 L 10 14 L 14 14 L 14 10 L 10.708984 10 L 6 5.2929688 L 6 2 L 2 2 z "
       transform="translate(385.00043,-78.996356)"
       id="rect4179" />
  </g>
</svg>

<?xml version="1.0" encoding="UTF-8" standalone="no"?>
<!-- Created with Inkscape (http://www.inkscape.org/) -->
<svg id="svg7384" xmlns:rdf="http://www.w3.org/1999/02/22-rdf-syntax-ns#" style="enable-background:new" xmlns="http://www.w3.org/2000/svg" xmlns:osb="http://www.openswatchbook.org/uri/2009/osb" height="16" width="16" version="1.1" xmlns:cc="http://creativecommons.org/ns#" xmlns:xlink="http://www.w3.org/1999/xlink" xmlns:dc="http://purl.org/dc/elements/1.1/">
 <metadata id="metadata90">
  <rdf:RDF>
   <cc:Work rdf:about="">
    <dc:format>image/svg+xml</dc:format>
    <dc:type rdf:resource="http://purl.org/dc/dcmitype/StillImage"/>
    <dc:title>Paper Symbolic Icon Theme</dc:title>
   </cc:Work>
  </rdf:RDF>
 </metadata>
 <title id="title8473">Paper Symbolic Icon Theme</title>
 <defs id="defs7386">
  <linearGradient id="linearGradient4177" y2="-77.996" gradientUnits="userSpaceOnUse" x2="393" y1="-63.996" x1="393">
   <stop id="stop4173" offset="0"/>
   <stop id="stop4175" stop-opacity="0" offset="1"/>
  </linearGradient>
 </defs>
 <g id="layer12" transform="translate(-385 78.996)">
  <path id="rect4168" opacity=".5" d="m386-77.996h14v14h-14z" fill="url(#linearGradient4177)"/>
  <path id="rect4179" opacity=".5" d="m2 2v4h3.293l4.707 4.705v3.295h4v-4h-3.291l-4.709-4.707v-3.293h-4z" transform="translate(385 -78.996)"/>
 </g>
</svg>
